X:486
T:Wellington's Beef
C:Russ Deuth
N:Transcribed by Mike Stangeland
R:bluegrass
L:1/8
Q:1/4=215
M:4/4
K:G
z6 ED |: "G"G2 Bc d2 g2 | ed c2 d2 cB | "D"A2 F2 G2 ^G2 | AB AF D2 DE | "G"G2 Bc d2 g2 | 
ed c2 d2 cB | "D"A2 AB cB AB |1 c"G"B A2 G2 ED :|2 c"G"B A2 G2 Bc | "G"d2 g2 d2 g2 | 
=fe d2 c2 Bc | "Bb"d2 ^Ac dc A2 | {d}"C"e2 cd ed c2 | "G"[gd][gd] z[gd] [g2d2] de | 
=fe d2 c2 Bc | d2 AB cB AB :| c"G"B A2 G4 | 


